libs/ui/packages/crypto-icons/src/svg/STEUR.svg

<svg width="25" height="25" viewBox="0 0 25 25" fill="none" xmlns="http://www.w3.org/2000/svg">
<path fill-rule="evenodd" clip-rule="evenodd" d="M9.02772 14.1248L6.28344 11.4349C2.72712 12.1356 0.338684 13.1869 0.338684 13.1869C0.338684 19.5341 5.71127 24.6795 12.3387 24.6795C18.9661 24.6795 24.3387 19.5341 24.3387 13.1869C24.3387 13.1869 21.9166 12.1208 18.3189 11.4202L15.5596 14.1248L12.294 10.9238L9.02772 14.1248ZM6.33868 15.8223V19.8067H9.10746V18.9752H7.27278V18.2139H8.91493V17.3824H7.27278V16.6538H9.07349V15.8223H6.33868ZM10.6297 19.1798C10.7634 19.4054 10.9542 19.5804 11.1997 19.704L11.2014 19.7048C11.4511 19.8247 11.7454 19.8828 12.0812 19.8828C12.4168 19.8828 12.7101 19.8245 12.9564 19.7043C13.2059 19.5807 13.3972 19.4054 13.5275 19.1789C13.661 18.9495 13.726 18.6821 13.726 18.3798V15.8223H12.7919V18.4016C12.7919 18.6154 12.7282 18.7736 12.6097 18.8873L12.6089 18.8882C12.4958 18.9997 12.3252 19.0622 12.0812 19.0622C11.8376 19.0622 11.6645 18.9999 11.5474 18.8877C11.4325 18.7742 11.3704 18.6158 11.3704 18.4016V15.8223H10.4363V18.3798C10.4363 18.6818 10.4993 18.9489 10.6288 19.1782L10.6297 19.1798ZM15.2483 15.8223V19.8067H16.1824V18.3716H17.131C17.2269 18.3716 17.2703 18.3954 17.2903 18.4195L17.2915 18.4209L17.2927 18.4222C17.3241 18.457 17.3435 18.5054 17.3435 18.5755V19.8067H18.2776V18.4723C18.2776 18.3045 18.2316 18.1603 18.1303 18.0495C18.0585 17.9683 17.967 17.9151 17.8598 17.8877C17.9916 17.8176 18.1057 17.7224 18.2016 17.6027C18.3305 17.4418 18.3908 17.2361 18.3908 16.9936V16.9284C18.3908 16.7071 18.336 16.5104 18.2231 16.3418C18.1109 16.1742 17.9534 16.0457 17.7539 15.9558C17.5541 15.8658 17.323 15.8223 17.0631 15.8223H15.2483ZM16.9838 16.6538C17.1481 16.6538 17.2611 16.6961 17.3368 16.7689L17.3381 16.7701C17.415 16.841 17.4567 16.9375 17.4567 17.0697V17.1241C17.4567 17.2552 17.4138 17.354 17.3325 17.4292C17.2565 17.4993 17.1446 17.5401 16.9838 17.5401H16.1824V16.6538H16.9838Z" fill="#AAC4FD"/>
<path fill-rule="evenodd" clip-rule="evenodd" d="M24.3283 13.333C24.3352 13.1662 24.3387 12.9986 24.3387 12.8301C24.3387 6.20266 18.9661 0.830078 12.3387 0.830078C5.71127 0.830078 0.338684 6.20266 0.338684 12.8301C0.338684 12.9986 0.342156 13.1662 0.349033 13.333C0.52456 13.257 2.91814 12.2358 6.40475 11.5618L5.76208 10.9319L12.294 4.5293L14.3193 6.51469C14.0869 6.61622 13.8348 6.68492 13.5696 6.71452L12.6912 6.81258C12.5865 6.82427 12.5865 6.96721 12.6912 6.97891L13.5696 7.07696C14.7038 7.20357 15.598 8.04487 15.7326 9.11193L15.8368 9.9383C15.8493 10.0368 16.0012 10.0368 16.0136 9.9383L16.1178 9.11193C16.1467 8.88284 16.2106 8.66416 16.3044 8.46072L18.8252 10.9319L18.1973 11.5474C21.7247 12.2211 24.1515 13.2564 24.3283 13.333ZM16.3044 8.46072C16.6475 7.71658 17.3902 7.17639 18.2809 7.07696L19.1592 6.97891C19.2639 6.96721 19.2639 6.82427 19.1592 6.81258L18.2809 6.71452C17.1467 6.58791 16.2524 5.74661 16.1178 4.67955L16.0136 3.85318C16.0012 3.75467 15.8493 3.75467 15.8368 3.85318L15.7326 4.67955C15.6295 5.49707 15.0805 6.18208 14.3193 6.51469L16.3044 8.46072ZM12.2522 10.9728L12.3356 10.9727L12.294 10.9319L12.2522 10.9728Z" fill="#AAC4FD" fill-opacity="0.5"/>
</svg>

<svg xmlns="http://www.w3.org/2000/svg" width="25" height="25" viewBox="0 0 25 25" fill="none"><path fill="#aac4fd" fill-rule="evenodd" d="m9.028 14.125-2.745-2.69c-3.556.7-5.944 1.752-5.944 1.752 0 6.347 5.372 11.493 12 11.493 6.627 0 12-5.146 12-11.493 0 0-2.422-1.066-6.02-1.767l-2.76 2.705-3.265-3.201zm-2.69 1.697v3.985h2.77v-.832H7.272v-.761h1.642v-.832H7.273v-.728h1.8v-.832zm4.292 3.358q.2.338.57.524h.001q.375.18.88.179.506.001.875-.179.375-.185.572-.525.199-.345.198-.8v-2.557h-.934v2.58c0 .213-.064.372-.182.485l-.001.001c-.113.112-.284.174-.528.174-.243 0-.416-.062-.534-.174-.115-.114-.177-.272-.177-.486v-2.58h-.934v2.558q-.001.454.193.798zm4.618-3.358v3.985h.934v-1.435h.949c.096 0 .14.023.16.047v.002l.002.001a.22.22 0 0 1 .05.154v1.23h.935v-1.334a.6.6 0 0 0-.148-.423.53.53 0 0 0-.27-.161q.198-.106.342-.285.19-.244.189-.61v-.065a1.03 1.03 0 0 0-.168-.586 1.1 1.1 0 0 0-.47-.386 1.7 1.7 0 0 0-.69-.134zm1.736.832c.164 0 .277.042.353.115l.001.001a.4.4 0 0 1 .119.3v.054a.39.39 0 0 1-.125.305c-.076.07-.187.111-.348.111h-.802v-.886z" clip-rule="evenodd"/><path fill="#aac4fd" fill-opacity=".5" fill-rule="evenodd" d="M24.328 13.333q.01-.25.01-.503c0-6.627-5.372-12-12-12-6.627 0-12 5.373-12 12q0 .253.011.503c.176-.076 2.57-1.097 6.056-1.771l-.643-.63 6.532-6.403 2.025 1.986q-.35.153-.75.2l-.878.098a.083.083 0 0 0 0 .166l.879.098c1.134.127 2.028.968 2.163 2.035l.104.826c.012.099.164.099.177 0l.104-.826q.045-.346.186-.651l2.521 2.47-.628.616c3.528.674 5.954 1.71 6.131 1.786m-8.024-4.872c.344-.744 1.086-1.285 1.977-1.384l.878-.098a.083.083 0 0 0 0-.166l-.878-.098c-1.134-.127-2.029-.968-2.163-2.035l-.104-.827c-.013-.098-.165-.098-.177 0l-.104.827c-.104.817-.652 1.502-1.414 1.835zm-4.052 2.512h.084l-.042-.041z" clip-rule="evenodd"/></svg>
